X: 6144
T: Captain O'Kane
R: waltz
M: 3/4
K: Gminor
G/F/|DGA B2 A/G/|A/B/c/B/A/G/ FGA|BdB d/c/B/A/G/F/|DGG G2 G/F/|
DGA B2 A/G/|A/B/c/B/A/G/ FGA|f3/2e/d d/c/B/A/G/F/|DGG G2 G/A/|
Bdd d2 c/B/|Acc c2 f/e/|dg3/2g/ gab|dg^f g2 g/a/|
bag fed|cA f F2 G/A/|BdB d/c/B/A/G/F/|DGF G2||

